X:1
T: Fourpence Ha'penny Farthing
N:
C:
S:
A:
O:
R:
M:6/8
K:Em
I:speed 180
%W:
% voice 1 (1 lines, 37 notes)
K:Em
M:6/8
L:1/16
G4 B2 B2 G2 B2 F4 A2 A2 F2 A2 G4 B2 B2 G2 B2 d6 g6 |G4 B2 B2 G2 B2 F4 A2 A2 F2 D2 E F G2 E2 F G A2 F2 E6 G6 |
%W:
% voice 1 (1 lines, 37 notes)
G4 B2 B2 G2 B2 F4 A2 A2 F2 A2 G4 B2 B2 G2 B2 d6 g6 |G4 B2 B2 G2 B2 F4 A2 A2 F2 D2 E F G2 E2 F G A2 F2 E6E6 |
%W:
% voice 1 (1 lines, 37 notes)
d4 e2 d2 B2 G2 g4 e2 d2 B2 G2 c4 e2 d2 B2 G2 F6 A6 |B,4 D2 D2 B,2 D2 G4 B2 A2 F2 D2 E F G2 E2 F G A2 F2 E6 G6 |
%W:
% voice 1 (1 lines, 37 notes)
d4 e2 d2 B2 G2 g4 e2 d2 B2 G2 c4 e2 d2 B2 G2 F6 A6 |B,4 D2 D2 B,2 D2 G4 B2 A2 F2 D2 E F G2 E2 F G A2 F2 E6E6 ||
